src/next/cmd/sc_graphicfilterremovenoise.svg

<svg height="16" viewBox="0 0 11.000125 10" width="16" xmlns="http://www.w3.org/2000/svg" xmlns:xlink="http://www.w3.org/1999/xlink"><linearGradient id="a" gradientUnits="userSpaceOnUse" x1="19" x2="19" xlink:href="#n" y1="27.142599" y2="49.465099"/><linearGradient id="b" gradientTransform="matrix(2.0000029 0 0 1.0769231 -49.500698 -3.076923)" gradientUnits="userSpaceOnUse" x1="42" x2="42" xlink:href="#n" y1="4" y2="76.000504"/><linearGradient id="c" gradientTransform="scale(2 1)" gradientUnits="userSpaceOnUse" x1="2" x2="2" y1="9.749136" y2="52.0005"><stop offset="0" stop-color="#ad7300"/><stop offset=".5" stop-color="#888"/><stop offset="1" stop-color="#555"/></linearGradient><linearGradient id="d" gradientUnits="userSpaceOnUse" x1="10.245214" x2="11.000124" y1="53.750156" y2="24.504112"><stop offset="0" stop-color="#555"/><stop offset="1" stop-color="#bc7d00"/></linearGradient><linearGradient id="e" gradientUnits="userSpaceOnUse" x1="10" x2="10" y1="28" y2="52.0005"><stop offset=".1" stop-color="#fff"/><stop offset=".25" stop-color="#fff6c8"/><stop offset=".5" stop-color="#e39700"/><stop offset=".89999998" stop-color="#fd0"/></linearGradient><linearGradient id="f" gradientUnits="userSpaceOnUse" x1="5.500063" x2="1.596637" y1="40" y2="40"><stop offset="0" stop-color="#383838"/><stop offset="1" stop-color="#383838" stop-opacity="0"/></linearGradient><linearGradient id="g" gradientUnits="userSpaceOnUse" x1="38.500439" x2="44.0005" y1=".124547" y2=".124547"><stop offset="0" stop-color="#353535"/><stop offset="1" stop-color="#555"/></linearGradient><linearGradient id="h" gradientUnits="userSpaceOnUse" x1="38.500439" x2="44.0005" y1="79.87542" y2="79.87542"><stop offset="0" stop-color="#343434"/><stop offset="1" stop-color="#555"/></linearGradient><linearGradient id="i" gradientUnits="userSpaceOnUse" x1="25.9629" x2="31.0891" xlink:href="#n" y1="20.433599" y2="29.404699"/><radialGradient id="j" cx="-32" cy="9.6" gradientTransform="matrix(2.4779192 2.4779192 -12.389597 12.389597 270.74796 15.197229)" gradientUnits="userSpaceOnUse" r="5.6"><stop offset="0" stop-color="#a50606"/><stop offset="1" stop-color="#f20909"/></radialGradient><linearGradient id="k" gradientUnits="userSpaceOnUse" x1="4" x2="16" y1="23.249969" y2="23.249969"><stop offset="0" stop-color="#ad7300"/><stop offset="1" stop-color="#cf8900"/></linearGradient><linearGradient id="l" gradientUnits="userSpaceOnUse" x1="28" x2="28" y1="4" y2="76.000504"><stop offset=".3136" stop-color="#fff"/><stop offset=".5" stop-color="#888"/><stop offset=".89999998" stop-color="#ddd"/></linearGradient><linearGradient id="m" gradientUnits="userSpaceOnUse" x1="31.9995" x2="41.467957" y1="40" y2="40"><stop offset="0" stop-opacity="0"/><stop offset="1"/></linearGradient><linearGradient id="n" gradientUnits="userSpaceOnUse" x1="25.9629" x2="31.0891" y1="20.433599" y2="29.404699"><stop offset=".2308" stop-color="#fff"/><stop offset="1" stop-color="#fff" stop-opacity="0"/></linearGradient><linearGradient id="o"><stop offset="0" stop-color="#555"/><stop offset="1" stop-color="#323232"/></linearGradient><linearGradient id="p" gradientUnits="userSpaceOnUse" x1="16" x2="40" xlink:href="#o" y1="64" y2="64"/><linearGradient id="q" gradientUnits="userSpaceOnUse" x1="16" x2="40" xlink:href="#o" y1="16" y2="16"/><linearGradient id="r" gradientTransform="matrix(1 0 0 1.0769232 0 -3.076924)" gradientUnits="userSpaceOnUse" x1="44.0005" x2="44.0005" y1="4" y2="76.000504"><stop offset="0" stop-color="#bbb"/><stop offset=".1" stop-color="#fff"/><stop offset=".25" stop-color="#eee"/><stop offset=".5" stop-color="#888"/><stop offset=".73369998" stop-color="#eee"/><stop offset="1" stop-color="#bbb"/></linearGradient><linearGradient id="s" gradientTransform="matrix(1 0 0 1.0384615 0 -2.913477)" gradientUnits="userSpaceOnUse" x1="50.000999" x2="50.000999" y1="4" y2="76.000504"><stop offset="0" stop-color="#555"/><stop offset=".5" stop-color="#888"/><stop offset="1" stop-color="#555"/></linearGradient><g transform="matrix(.125 0 0 .125 .000063 0)"><rect fill="url(#c)" height="22.000252" rx="2.743291" width="8.250094" y="28.999874"/><path d="m0 28.999874h8.250092v22.000252h-8.250092z" fill="url(#f)"/><path d="m8.250094 56.500187h8.250095v2.750034h-8.250095z" fill="#555"/><path d="m8.250094 20.749783h8.250095v2.750036h-8.250095z" fill="url(#k)"/><path d="m16.500188 56.500188 22.00025 22.000249 1.499562-74.500437-23.499812 22.249844z" fill="url(#l)"/><path d="m31.749906 64.750281 8.250094 11.249719v-74.7500312l-8.250094 8.499687z" fill="url(#m)" opacity=".6" transform="translate(-1.499563)"/><path d="m16 30v6l24-12v-12z" fill="url(#i)"/><rect fill="#555" height="5.500011" rx="2.750005" width="13.750164" x="38.500439" y="75.750404"/><rect fill="#555" height="5.500063" rx="2.743291" width="13.750155" x="38.500439" y="-1.250469"/><path d="m38.500438 81.250469h-.585561c-.700201 0-1.400592-.346182-1.798079-.746379l-19.61661-21.253871v-2.750032h.591019c.616872 0 1.244881.25019 1.664166.733828l19.745065 21.266422z" fill="url(#p)"/><path d="m16.500188 23.499813h.840048c.743204 0 1.25106-.351305 1.667854-.781082l19.492348-21.2191685v-2.7500313h-.72458c-.663413 0-1.28562.35050725-1.754337.84702805l-19.521333 21.15322175z" fill="url(#q)"/><path d="m38.500439 1.499563h11.000139v77.000877h-11.000139z" fill="url(#r)"/><path d="m49.500561 1.499563h2.756647v77.000877h-2.756647z" fill="url(#s)"/><path d="m16 48c2.604 0 6-2.769 6-10 0-7.232-3.396-10-6-10z" fill="url(#a)"/><path d="m44.0005 1.499563h5.500053v77.000877h-5.500053z" fill="url(#b)"/><rect fill="url(#d)" height="38.488945" rx="11.000125" ry="2.696109" transform="matrix(.25 0 0 1 4.125047 0)" width="22.00025" x="5.500063" y="20.738699"/><path d="m5.500063 23.749815h11.000124v30.000341h-11.000124z" fill="url(#e)" transform="matrix(.75 0 0 1.1 4.125047 -2.624984)"/><path d="m38.500439-1.250469h5.500062v2.750031h-5.500062z" fill="url(#g)"/><path d="m38.500439 78.500435h5.500062v2.749968h-5.500062z" fill="url(#h)"/><path d="m81.628066 45.73029-12.762675 12.762668-12.762667-12.762668-6.372435 6.372434 12.76267 12.762666-12.76267 12.762675 6.372435 6.372434 12.762667-12.762668 12.762675 12.762668 6.372434-6.372434-12.762668-12.762675 12.762668-12.762666z" fill="url(#j)" stroke-width=".687508"/></g></svg>

<?xml version="1.0" encoding="UTF-8" standalone="no"?>
<!-- Created with Inkscape (http://www.inkscape.org/) -->

<svg
   xmlns:dc="http://purl.org/dc/elements/1.1/"
   xmlns:cc="http://creativecommons.org/ns#"
   xmlns:rdf="http://www.w3.org/1999/02/22-rdf-syntax-ns#"
   xmlns:svg="http://www.w3.org/2000/svg"
   xmlns="http://www.w3.org/2000/svg"
   xmlns:xlink="http://www.w3.org/1999/xlink"
   xmlns:sodipodi="http://sodipodi.sourceforge.net/DTD/sodipodi-0.dtd"
   xmlns:inkscape="http://www.inkscape.org/namespaces/inkscape"
   version="1.0"
   width="16"
   height="16"
   viewBox="0 0 11.000125 10"
   id="Livello_1"
   xml:space="preserve"
   style="overflow:visible"
   sodipodi:version="0.32"
   inkscape:version="0.92.4 (unknown)"
   sodipodi:docname="sc_graphicfilterremovenoise.svg"
   inkscape:output_extension="org.inkscape.output.svgz.inkscape"
   inkscape:export-filename="/home/rizmut/Dokumen/Rizmut/Github/libreoffice-style-karasa-jaga/build/next/cmd/sc_graphicfilterremovenoise.png"
   inkscape:export-xdpi="96"
   inkscape:export-ydpi="96"><metadata
   id="metadata124"><rdf:RDF><cc:Work
       rdf:about=""><dc:format>image/svg+xml</dc:format><dc:type
         rdf:resource="http://purl.org/dc/dcmitype/StillImage" /><dc:title></dc:title></cc:Work></rdf:RDF></metadata><sodipodi:namedview
   inkscape:window-height="714"
   inkscape:window-width="1366"
   inkscape:pageshadow="2"
   inkscape:pageopacity="0.0"
   guidetolerance="10.0"
   gridtolerance="10.0"
   objecttolerance="10.0"
   borderopacity="1.0"
   bordercolor="#666666"
   pagecolor="#ffffff"
   id="base"
   showgrid="true"
   inkscape:zoom="7.0777588"
   inkscape:cx="1.1781558"
   inkscape:cy="6.8829108"
   inkscape:window-x="0"
   inkscape:window-y="28"
   inkscape:current-layer="g161"
   inkscape:window-maximized="1"><inkscape:grid
     type="xygrid"
     id="grid2514"
     visible="true"
     enabled="true"
     spacingx="0.34375391"
     spacingy="0.3125"
     originx="0"
     originy="0" /></sodipodi:namedview><defs
   id="defs3353"><inkscape:perspective
   sodipodi:type="inkscape:persp3d"
   inkscape:vp_x="0 : 64 : 1"
   inkscape:vp_y="0 : 1000 : 0"
   inkscape:vp_z="128 : 64 : 1"
   inkscape:persp3d-origin="64 : 42.666667 : 1"
   id="perspective126" /><linearGradient
   id="linearGradient3425"><stop
     id="stop3427"
     style="stop-color:#343434;stop-opacity:1"
     offset="0" /><stop
     id="stop3429"
     style="stop-color:#555555;stop-opacity:1"
     offset="1" /></linearGradient><linearGradient
   id="linearGradient3417"><stop
     id="stop3419"
     style="stop-color:#353535;stop-opacity:1"
     offset="0" /><stop
     id="stop3421"
     style="stop-color:#555555;stop-opacity:1"
     offset="1" /></linearGradient><linearGradient
   id="linearGradient3409"><stop
     id="stop3411"
     style="stop-color:#fdfdfd;stop-opacity:1"
     offset="0" /><stop
     id="stop3413"
     style="stop-color:#fdfdfd;stop-opacity:0"
     offset="1" /></linearGradient><linearGradient
   id="linearGradient3342"><stop
     id="stop3345"
     style="stop-color:#ffffff;stop-opacity:1"
     offset="0" /><stop
     id="stop3347"
     style="stop-color:#ffffff;stop-opacity:0"
     offset="1" /></linearGradient><linearGradient
   id="linearGradient3315"><stop
     id="stop3318"
     style="stop-color:#383838;stop-opacity:1"
     offset="0" /><stop
     id="stop3320"
     style="stop-color:#383838;stop-opacity:0"
     offset="1" /></linearGradient><linearGradient
   id="linearGradient3302"><stop
     id="stop3305"
     style="stop-color:#555555;stop-opacity:1"
     offset="0" /><stop
     id="stop3307"
     style="stop-color:#bc7d00;stop-opacity:1"
     offset="1" /></linearGradient><linearGradient
   x1="19"
   y1="27.142599"
   x2="19"
   y2="49.465099"
   id="linearGradient4161"
   xlink:href="#XMLID_20_"
   gradientUnits="userSpaceOnUse" /><linearGradient
   x1="42"
   y1="4"
   x2="42"
   y2="76.000504"
   id="linearGradient4163"
   xlink:href="#XMLID_20_"
   gradientUnits="userSpaceOnUse"
   gradientTransform="matrix(2.0000029,0,0,1.0769231,-49.500698,-3.0769234)" /><linearGradient
   x1="55.972698"
   y1="40"
   x2="64.000999"
   y2="40"
   id="XMLID_24_"
   gradientUnits="userSpaceOnUse">
		<stop
   id="stop3284"
   style="stop-color:#bff500;stop-opacity:1"
   offset="0" />
		<stop
   id="stop3286"
   style="stop-color:#00bf00;stop-opacity:1"
   offset="1" />
	</linearGradient><linearGradient
   x1="63.244099"
   y1="40"
   x2="76.000999"
   y2="40"
   id="XMLID_25_"
   gradientUnits="userSpaceOnUse">
		<stop
   id="stop3293"
   style="stop-color:#bff500;stop-opacity:1"
   offset="0" />
		<stop
   id="stop3295"
   style="stop-color:#00bf00;stop-opacity:1"
   offset="1" />
	</linearGradient><linearGradient
   x1="67.555702"
   y1="40"
   x2="88.000999"
   y2="40"
   id="XMLID_26_"
   gradientUnits="userSpaceOnUse"
   gradientTransform="translate(-0.001)">
		<stop
   id="stop3302"
   style="stop-color:#bff500;stop-opacity:1"
   offset="0" />
		<stop
   id="stop3304"
   style="stop-color:#00bf00;stop-opacity:1"
   offset="1" />
	</linearGradient><linearGradient
   x1="55.972698"
   y1="40"
   x2="64.000999"
   y2="40"
   id="linearGradient4181"
   xlink:href="#XMLID_24_"
   gradientUnits="userSpaceOnUse"
   gradientTransform="matrix(1.0114764,0,0,1.0114764,-1.5756918,-0.4590588)" /><linearGradient
   x1="63.244099"
   y1="40"
   x2="76.000999"
   y2="40"
   id="linearGradient4183"
   xlink:href="#XMLID_24_"
   gradientUnits="userSpaceOnUse" />
	<linearGradient
   x1="2"
   y1="28"
   x2="2"
   y2="52.0005"
   id="XMLID_16_"
   gradientUnits="userSpaceOnUse"
   gradientTransform="scale(2,1)">
		<stop
   id="stop3218"
   style="stop-color:#ad7300;stop-opacity:1"
   offset="0" />
		<stop
   id="stop3220"
   style="stop-color:#888888;stop-opacity:1"
   offset="0.5" />
		<stop
   id="stop3222"
   style="stop-color:#555555;stop-opacity:1"
   offset="1" />
	</linearGradient>
	
<linearGradient
   x1="2"
   y1="28"
   x2="2"
   y2="52.0005"
   id="linearGradient2504"
   xlink:href="#XMLID_16_"
   gradientUnits="userSpaceOnUse"
   gradientTransform="matrix(1,0,0,1.2499999,2.7500313,-9.9999976)" /><linearGradient
   x1="2"
   y1="28"
   x2="2"
   y2="52.0005"
   id="linearGradient2507"
   xlink:href="#XMLID_16_"
   gradientUnits="userSpaceOnUse"
   gradientTransform="matrix(1,0,0,1.3854165,2.7500313,-15.416662)" /><linearGradient
   x1="2"
   y1="28"
   x2="2"
   y2="52.0005"
   id="linearGradient2510"
   xlink:href="#XMLID_16_"
   gradientUnits="userSpaceOnUse"
   gradientTransform="matrix(0.8662477,0,0,0.9999998,2.9339428,2.3076228e-6)" /><linearGradient
   x1="2"
   y1="9.749136"
   x2="2"
   y2="52.0005"
   id="linearGradient2513"
   xlink:href="#XMLID_16_"
   gradientUnits="userSpaceOnUse"
   gradientTransform="scale(2,1)" /><linearGradient
   x1="10.245214"
   y1="53.750156"
   x2="11.000124"
   y2="24.504112"
   id="linearGradient3309"
   xlink:href="#linearGradient3302"
   gradientUnits="userSpaceOnUse" /><linearGradient
   x1="10"
   y1="28"
   x2="10"
   y2="52.0005"
   id="linearGradient3311"
   xlink:href="#XMLID_30_"
   gradientUnits="userSpaceOnUse" /><linearGradient
   x1="5.5000625"
   y1="40"
   x2="1.5966369"
   y2="40"
   id="linearGradient3322"
   xlink:href="#linearGradient3315"
   gradientUnits="userSpaceOnUse" /><linearGradient
   x1="1.0086651"
   y1="31.246702"
   x2="5.5000625"
   y2="39.026031"
   id="linearGradient3349"
   xlink:href="#linearGradient3342"
   gradientUnits="userSpaceOnUse" /><filter
   height="1.1031489"
   y="-0.051574428"
   width="1.3895328"
   x="-0.19476642"
   id="filter3399"><feGaussianBlur
     id="feGaussianBlur3401"
     stdDeviation="0.40121801"
     inkscape:collect="always" /></filter><linearGradient
   x1="8.2500925"
   y1="27.471912"
   x2="8.2500925"
   y2="44.415783"
   id="linearGradient3415"
   xlink:href="#linearGradient3409"
   gradientUnits="userSpaceOnUse" /><linearGradient
   x1="38.500439"
   y1="2.874578"
   x2="44.0005"
   y2="2.874578"
   id="linearGradient3423"
   xlink:href="#linearGradient3417"
   gradientUnits="userSpaceOnUse"
   gradientTransform="translate(0,-2.7500312)" /><linearGradient
   x1="38.500439"
   y1="77.125389"
   x2="44.0005"
   y2="77.125389"
   id="linearGradient3431"
   xlink:href="#linearGradient3425"
   gradientUnits="userSpaceOnUse"
   gradientTransform="translate(0,2.7500312)" /><linearGradient
   inkscape:collect="always"
   xlink:href="#XMLID_24_"
   id="linearGradient2508"
   gradientUnits="userSpaceOnUse"
   x1="63.244099"
   y1="40"
   x2="76.000999"
   y2="40" /><linearGradient
   inkscape:collect="always"
   xlink:href="#XMLID_20_"
   id="linearGradient182"
   gradientUnits="userSpaceOnUse"
   x1="25.9629"
   y1="20.433599"
   x2="31.0891"
   y2="29.404699" /><linearGradient
   inkscape:collect="always"
   xlink:href="#linearGradient3302"
   id="linearGradient184"
   gradientUnits="userSpaceOnUse"
   x1="10.245214"
   y1="53.750156"
   x2="11.000124"
   y2="24.504112" /><radialGradient
   id="a"
   cx="-32"
   cy="9.6000004"
   gradientTransform="matrix(2.4779192,2.4779192,-12.389597,12.389597,270.74796,15.197229)"
   gradientUnits="userSpaceOnUse"
   r="5.5999999"><stop
     offset="0"
     stop-color="#a50606"
     id="stop2" /><stop
     offset="1"
     stop-color="#f20909"
     id="stop4" /></radialGradient></defs>


<linearGradient
   x1="4"
   y1="26"
   x2="16"
   y2="26"
   id="XMLID_17_"
   gradientUnits="userSpaceOnUse"
   gradientTransform="translate(0,-2.7500312)">
	<stop
   id="stop3227"
   style="stop-color:#ad7300;stop-opacity:1"
   offset="0" />
	<stop
   id="stop3229"
   style="stop-color:#cf8900;stop-opacity:1"
   offset="1" />
</linearGradient>

<linearGradient
   x1="28"
   y1="4"
   x2="28"
   y2="76.000504"
   id="XMLID_18_"
   gradientUnits="userSpaceOnUse">
	<stop
   id="stop3234"
   style="stop-color:#ffffff;stop-opacity:1"
   offset="0.3136" />
	<stop
   id="stop3236"
   style="stop-color:#888888;stop-opacity:1"
   offset="0.5" />
	<stop
   id="stop3238"
   style="stop-color:#dddddd;stop-opacity:1"
   offset="0.89999998" />
</linearGradient>

<linearGradient
   x1="31.9995"
   y1="40"
   x2="41.467957"
   y2="40"
   id="XMLID_19_"
   gradientUnits="userSpaceOnUse">
	<stop
   id="stop3243"
   style="stop-color:#000000;stop-opacity:0"
   offset="0" />
	<stop
   id="stop3245"
   style="stop-color:#000000;stop-opacity:1"
   offset="1" />
</linearGradient>

<linearGradient
   x1="25.9629"
   y1="20.433599"
   x2="31.0891"
   y2="29.404699"
   id="XMLID_20_"
   gradientUnits="userSpaceOnUse">
	<stop
   id="stop3250"
   style="stop-color:#ffffff;stop-opacity:1"
   offset="0.2308" />
	<stop
   id="stop3252"
   style="stop-color:#ffffff;stop-opacity:0"
   offset="1" />
</linearGradient>



<linearGradient
   x1="19"
   y1="27.142599"
   x2="19"
   y2="49.465099"
   id="XMLID_21_"
   gradientUnits="userSpaceOnUse">
	<stop
   id="stop3261"
   style="stop-color:#ffffff;stop-opacity:1"
   offset="0" />
	<stop
   id="stop3263"
   style="stop-color:#000000;stop-opacity:1"
   offset="1" />
</linearGradient>

<linearGradient
   x1="16"
   y1="64"
   x2="40"
   y2="64"
   id="XMLID_22_"
   gradientUnits="userSpaceOnUse">
	<stop
   id="stop3268"
   style="stop-color:#555555;stop-opacity:1"
   offset="0" />
	<stop
   id="stop3270"
   style="stop-color:#323232;stop-opacity:1"
   offset="1" />
</linearGradient>

<linearGradient
   x1="16"
   y1="16"
   x2="40"
   y2="16"
   id="XMLID_23_"
   gradientUnits="userSpaceOnUse">
	<stop
   id="stop3275"
   style="stop-color:#555555;stop-opacity:1"
   offset="0" />
	<stop
   id="stop3277"
   style="stop-color:#323232;stop-opacity:1"
   offset="1" />
</linearGradient>




<linearGradient
   x1="44.0005"
   y1="4"
   x2="44.0005"
   y2="76.000504"
   id="XMLID_27_"
   gradientUnits="userSpaceOnUse"
   gradientTransform="matrix(1,0,0,1.0769232,0,-3.0769239)">
	<stop
   id="stop3309"
   style="stop-color:#bbbbbb;stop-opacity:1"
   offset="0" />
	<stop
   id="stop3311"
   style="stop-color:#ffffff;stop-opacity:1"
   offset="0.1" />
	<stop
   id="stop3313"
   style="stop-color:#eeeeee;stop-opacity:1"
   offset="0.25" />
	<stop
   id="stop3315"
   style="stop-color:#888888;stop-opacity:1"
   offset="0.5" />
	<stop
   id="stop3317"
   style="stop-color:#eeeeee;stop-opacity:1"
   offset="0.73369998" />
	<stop
   id="stop3319"
   style="stop-color:#bbbbbb;stop-opacity:1"
   offset="1" />
</linearGradient>

<linearGradient
   x1="42"
   y1="4"
   x2="42"
   y2="76.000504"
   id="XMLID_28_"
   gradientUnits="userSpaceOnUse">
	<stop
   id="stop3324"
   style="stop-color:#ffffff;stop-opacity:1"
   offset="0.2" />
	<stop
   id="stop3326"
   style="stop-color:#000000;stop-opacity:1"
   offset="1" />
</linearGradient>

<linearGradient
   x1="50.000999"
   y1="4"
   x2="50.000999"
   y2="76.000504"
   id="XMLID_29_"
   gradientUnits="userSpaceOnUse"
   gradientTransform="matrix(1,0,0,1.0384615,0,-2.9134772)">
	<stop
   id="stop3331"
   style="stop-color:#555555;stop-opacity:1"
   offset="0" />
	<stop
   id="stop3333"
   style="stop-color:#888888;stop-opacity:1"
   offset="0.5" />
	<stop
   id="stop3335"
   style="stop-color:#555555;stop-opacity:1"
   offset="1" />
</linearGradient>


<g
   id="g161"
   transform="matrix(0.125,0,0,0.125,6.25e-5,5.9604638e-8)"><rect
     style="fill:url(#linearGradient2513)"
     id="rect3224"
     y="28.999874"
     x="0"
     ry="2.7432909"
     rx="2.7432909"
     height="22.000252"
     width="8.2500935" /><rect
     style="fill:url(#linearGradient3322);fill-opacity:1"
     id="rect3313"
     y="28.999874"
     x="0"
     height="22.000252"
     width="8.2500925" /><rect
     style="fill:#555555"
     id="rect3213"
     y="56.500187"
     x="8.2500935"
     height="2.7500336"
     width="8.2500954" /><rect
     style="fill:url(#XMLID_17_)"
     id="rect3231"
     y="20.749783"
     x="8.2500935"
     height="2.7500355"
     width="8.2500954" /><path
     sodipodi:nodetypes="ccccc"
     style="fill:url(#XMLID_18_)"
     id="polygon3240"
     d="M 16.500188,56.500188 38.500438,78.500437 40,4 16.500188,26.249844 Z"
     inkscape:connector-curvature="0" /><path
     sodipodi:nodetypes="ccccc"
     style="opacity:0.6;fill:url(#XMLID_19_)"
     id="polygon3247"
     transform="translate(-1.4995625)"
     d="M 31.749906,64.750281 40,76 V 1.2499688 l -8.250094,8.499687 z"
     inkscape:connector-curvature="0" /><polygon
     style="fill:url(#linearGradient182)"
     id="polygon3254"
     points="16,30 16,36 40,24 40,12 " /><rect
     style="fill:#555555"
     id="rect3256"
     y="75.750404"
     x="38.500439"
     ry="2.7500052"
     rx="2.7500052"
     height="5.5000105"
     width="13.750164" /><rect
     style="fill:#555555"
     id="rect3258"
     y="-1.2504687"
     x="38.500439"
     ry="2.7432911"
     rx="2.7432911"
     height="5.5000625"
     width="13.750155" /><path
     sodipodi:nodetypes="ccccccccc"
     style="fill:url(#XMLID_22_)"
     id="polygon3272"
     d="m 38.500438,81.250469 h -0.585561 c -0.700201,0 -1.400592,-0.346182 -1.798079,-0.746379 L 16.500188,59.250219 v -2.750032 h 0.591019 c 0.616872,0 1.244881,0.25019 1.664166,0.733828 l 19.745065,21.266422 z"
     inkscape:connector-curvature="0" /><path
     sodipodi:nodetypes="ccccccccc"
     style="fill:url(#XMLID_23_)"
     id="polygon3279"
     d="m 16.500188,23.499813 h 0.840048 c 0.743204,0 1.25106,-0.351305 1.667854,-0.781082 L 38.500438,1.4995625 v -2.7500313 h -0.72458 c -0.663413,0 -1.28562,0.35050725 -1.754337,0.84702805 L 16.500188,20.749781 Z"
     inkscape:connector-curvature="0" /><rect
     style="fill:url(#XMLID_27_)"
     id="rect3321"
     y="1.4995625"
     x="38.500439"
     height="77.000877"
     width="11.000139" /><rect
     style="fill:url(#XMLID_29_)"
     id="rect3337"
     y="1.4995625"
     x="49.500561"
     height="77.000877"
     width="2.7566469" /><path
     style="fill:url(#linearGradient4161)"
     id="path4157"
     d="m 16,48 c 2.604,0 6,-2.769 6,-10 0,-7.232 -3.396,-10 -6,-10 z"
     inkscape:connector-curvature="0" /><rect
     style="fill:url(#linearGradient4163)"
     id="rect4159"
     y="1.4995625"
     x="44.0005"
     height="77.000877"
     width="5.5000525" /><g
     style="fill:url(#linearGradient3309);fill-opacity:1"
     id="g3285"
     transform="matrix(0.25,0,0,1,4.1250467,0)">
	<linearGradient
   gradientUnits="userSpaceOnUse"
   id="linearGradient3287"
   y2="52.0005"
   x2="10"
   y1="28"
   x1="10">
		<stop
   offset="0.1"
   style="stop-color:#ffffff;stop-opacity:1"
   id="stop3289" />
		<stop
   offset="0.25"
   style="stop-color:#fff6c8;stop-opacity:1"
   id="stop3291" />
		<stop
   offset="0.5"
   style="stop-color:#e39700;stop-opacity:1"
   id="stop3294" />
		<stop
   offset="0.89999998"
   style="stop-color:#ffdd00;stop-opacity:1"
   id="stop3296" />
	</linearGradient>
	<rect
   style="fill:url(#linearGradient184);fill-opacity:1"
   id="rect3298"
   y="20.738699"
   x="5.5000634"
   ry="2.6961088"
   rx="11.000125"
   height="38.488945"
   width="22.00025" />
</g><g
     id="g3339"
     transform="matrix(0.75,0,0,1.1,4.125047,-2.6249842)">
	<linearGradient
   gradientUnits="userSpaceOnUse"
   id="XMLID_30_"
   y2="52.0005"
   x2="10"
   y1="28"
   x1="10">
		<stop
   offset="0.1"
   style="stop-color:#ffffff;stop-opacity:1"
   id="stop3342" />
		<stop
   offset="0.25"
   style="stop-color:#fff6c8;stop-opacity:1"
   id="stop3344" />
		<stop
   offset="0.5"
   style="stop-color:#e39700;stop-opacity:1"
   id="stop3346" />
		<stop
   offset="0.89999998"
   style="stop-color:#ffdd00;stop-opacity:1"
   id="stop3348" />
	</linearGradient>
	<rect
   style="fill:url(#linearGradient3311)"
   id="rect3350"
   y="23.749815"
   x="5.5000625"
   height="30.000341"
   width="11.000124" />
</g><rect
     style="fill:url(#linearGradient3423);fill-opacity:1"
     id="rect3403"
     y="-1.2504687"
     x="38.500439"
     ry="0"
     rx="0"
     height="2.7500312"
     width="5.5000615" /><rect
     style="fill:url(#linearGradient3431);fill-opacity:1"
     id="rect3405"
     y="78.500435"
     x="38.500439"
     ry="0"
     rx="0"
     height="2.7499678"
     width="5.5000615" /><path
     inkscape:connector-curvature="0"
     style="fill:url(#a);stroke-width:0.68750781"
     d="M 81.628066,45.73029 68.865391,58.492958 56.102724,45.73029 49.730289,52.102724 62.492959,64.86539 49.730289,77.628065 56.102724,84.000499 68.865391,71.237831 81.628066,84.000499 88.0005,77.628065 75.237832,64.86539 88.0005,52.102724 Z"
     id="path64" /></g></svg>
